app/src/images/dejavu-logo.svg

<?xml version="1.0" encoding="UTF-8"?>
<svg width="153px" height="40px" viewBox="0 0 153 40" version="1.1" xmlns="http://www.w3.org/2000/svg" xmlns:xlink="http://www.w3.org/1999/xlink">
    <!-- Generator: Sketch 51.2 (57519) - http://www.bohemiancoding.com/sketch -->
    <title>Dejavu Logo@3x</title>
    <desc>Created with Sketch.</desc>
    <defs/>
    <g id="Page-1" stroke="none" stroke-width="1" fill="none" fill-rule="evenodd">
        <g id="Dejavu-_-Landing-Page-3" transform="translate(-43.000000, -30.000000)">
            <g id="Dejavu-Logo" transform="translate(43.000000, 30.000000)">
                <path d="M56.7638401,28.2863652 C58.0590554,28.2863652 59.0734651,27.8163059 60.045754,26.5200988 L60.045754,18.5472348 C58.9915635,17.6059821 57.8168606,17.2912861 56.7223043,17.2912861 C54.8186773,17.2912861 53.1168791,19.0201292 53.1168791,22.7102934 C53.1168791,26.5586562 54.4536301,28.2863652 56.7638401,28.2863652 M55.3457725,12.5799194 C57.5746659,12.5799194 58.911417,13.3629736 60.2879488,14.6217574 L60.045754,11.6369656 L60.045754,5 L66,5 L66,32.5276726 L61.1391403,32.5276726 L60.7354825,30.6037747 L60.5716793,30.6037747 C59.1536117,31.9782305 57.168083,33 55.2229201,33 C50.2409631,33 47,29.1505032 47,22.7891092 C47,16.4271481 51.0915697,12.5799194 55.3457725,12.5799194" id="Fill-1" fill="#6B7377"/>
                <path d="M79.9432493,21.0376531 C79.9432493,18.8451115 78.9731335,17.3073335 76.5855154,17.3073335 C74.7258834,17.3073335 73.1086343,18.4991253 72.7027159,21.0376531 L79.9432493,21.0376531 Z M76.464616,13 C82.169084,13 85,16.9607919 85,22.1533613 C85,23.1530003 84.8773484,24.0765557 84.7582011,24.5391664 L72.7441838,24.5391664 C73.2686654,27.4225696 75.2906648,28.6921112 77.9609656,28.6921112 C79.4584834,28.6921112 80.8339336,28.2689307 82.2917356,27.4225696 L84.2716831,30.8463333 C82.2087998,32.1914031 79.5396671,33 77.1538012,33 C71.4096174,33 67,29.3074445 67,22.9997223 C67,16.8069586 71.6514163,13 76.464616,13 Z" id="Fill-3" fill="#6B7377"/>
                <path d="M86.2258554,6.98013433 C86.2258554,5.21572267 87.6599874,4 89.6132154,4 C91.565868,4 93,5.21572267 93,6.98013433 C93,8.74567847 91.565868,10.0010381 89.6132154,10.0010381 C87.6599874,10.0010381 86.2258554,8.74567847 86.2258554,6.98013433 Z M86.6632311,12.8628278 L92.5234906,12.8628278 L92.5234906,32.1971782 C92.5234906,36.432106 90.8493774,40 85.4690803,40 C83.8341007,40 82.7982107,39.7661418 82,39.4518773 L83.0381919,35.215817 C83.5549859,35.3726662 84.0326462,35.4915771 84.5908758,35.4915771 C86.1441352,35.4915771 86.6632311,34.5102789 86.6632311,32.3540274 L86.6632311,12.8628278 Z" id="Fill-5" fill="#6B7377"/>
                <path d="M103.399675,28.6147951 C104.676247,28.6147951 105.502711,28 106.479393,26.9992225 L106.479393,23.6531156 C102.535792,24.1912696 101.258134,25.3453293 101.258134,26.8070643 C101.258134,28.0377652 102.083514,28.6147951 103.399675,28.6147951 M106.479393,20.269799 C106.367137,18.5759191 105.539588,17.4985005 103.548807,17.4985005 C101.971258,17.4985005 100.394252,18.1521715 98.5921909,19.2295901 L96.6382863,15.4991669 C99.005423,14.037432 101.671367,13 104.600325,13 C109.370933,13 112,15.7685216 112,21.6149061 L112,32.5379318 L107.492408,32.5379318 L107.08026,30.5769188 L106.966377,30.5769188 C105.389371,31.9997779 103.624187,33 101.52115,33 C98.1420824,33 96,30.4614018 96,27.230812 C96,23.2310341 99.1171367,21.0373209 106.479393,20.269799" id="Fill-7" fill="#6B7377"/>
                <path d="M113,13 L118.63584,13 L121.071935,22.435566 C121.567291,24.4109394 122.061547,26.5074084 122.557452,28.6062062 L122.709743,28.6062062 C123.166614,26.5074084 123.66087,24.4109394 124.156226,22.435566 L126.631355,13 L132,13 L125.831969,33 L119.358807,33 L113,13 Z" id="Fill-9" fill="#6B7377"/>
                <path d="M135,13 L140.958633,13 L140.958633,24.3781441 C140.958633,27.1730851 141.728414,28.079153 143.472861,28.079153 C144.972617,28.079153 145.864158,27.4476339 147.040196,25.9134574 L147.040196,13 L153,13 L153,32.5270712 L148.134281,32.5270712 L147.689388,29.8105727 L147.566457,29.8105727 C145.864158,31.7795936 143.998537,33 141.243715,33 C136.864451,33 135,30.0083843 135,25.1256217 L135,13 Z" id="Fill-11" fill="#6B7377"/>
                <path d="M0,5.45509152 C0,5.45509152 1.57965547,1.27946719 12.6725715,0.182238332 C23.3376292,-0.87307511 29.913639,2.99481578 30.0616792,3.10093076 C30.2114016,3.20651516 32.9243491,4.47140568 32.9978084,6.89719405 C33.0712677,9.32404356 31.2891786,10.4493929 28.9844629,11.8193372 C26.6791865,13.1919345 20.5871109,14 20.5871109,14 C20.5871109,14 19.3612938,9.10067153 13.3409952,6.75553055 C5.95973673,3.88352871 0,5.45509152 0,5.45509152" id="Fill-13" fill="#C5DFFF"/>
                <path d="M0,7.0888244 C0,7.0888244 7.2424952,6.53683643 11.9616955,8.18492283 C16.4801273,9.76436241 18.5693744,12.8337756 19,14.7857086 C19,14.7857086 12.1510567,15.913317 6.19644573,12.9952644 C0.41579611,10.1616137 0,7.0888244 0,7.0888244" id="Fill-15" fill="#0087FF"/>
                <path d="M0,10 L0,15.562947 C0,15.562947 2.97516104,23.7491154 18.9023228,22.9443235 C18.9023228,22.9443235 19.2897781,19.6439711 18.521334,16.9136795 C18.521334,16.9136795 4.18548738,18.2650003 0,10" id="Fill-17" fill="#0087FF"/>
                <path d="M0,18 L0,23.9885429 C0,23.9885429 3.69650661,30.4204347 15.063182,29.978197 C15.063182,29.978197 17.8814796,28.5542583 19,24.626343 C19,24.626343 4.27501375,25.7080475 0,18" id="Fill-19" fill="#0087FF"/>
                <path d="M0,26 L0,31.7840855 C0,31.7840855 4.26764072,34.6642269 13,31.5590922 C13,31.5590922 2.64216038,31.056966 0,26" id="Fill-21" fill="#0087FF"/>
                <path d="M21,16.4966795 C21,16.4966795 21.5079849,19.9184361 21.2047957,22 C21.2047957,22 31.3061448,21.703676 33,15.5055654 L33,10 C33,10 32.2723459,15.1581704 21,16.4966795" id="Fill-23" fill="#C5DFFF"/>
                <path d="M21.4134846,23.9462622 C21.4134846,23.9462622 20.1237618,28.188433 18,29.9905604 C18,29.9905604 30.1366499,30.5210568 33,23.6282044 L33,17 C33,17 32.542107,22.261156 21.4134846,23.9462622" id="Fill-25" fill="#C5DFFF"/>
                <path d="M0,33.2679733 C0,33.2679733 6.95044049,36.5903982 15.410065,31.2435675 C15.410065,31.2435675 31.3381578,32.5529832 33,25 L33,32.1558997 C33,32.1558997 29.3878363,38.5890116 16.4803565,37.9561973 C3.57343787,37.3227832 0,33.2679733 0,33.2679733" id="Fill-27" fill="#C5DFFF"/>
            </g>
        </g>
    </g>
</svg>

<svg width="153" height="40" xmlns="http://www.w3.org/2000/svg"><g fill="none" fill-rule="evenodd"><path d="M56.764 28.286c1.295 0 2.31-.47 3.282-1.766v-7.973c-1.054-.941-2.23-1.256-3.324-1.256-1.903 0-3.605 1.73-3.605 5.42 0 3.848 1.337 5.575 3.647 5.575M55.346 12.58c2.229 0 3.565.783 4.942 2.042l-.242-2.985V5H66v27.528h-4.86l-.405-1.924h-.163C59.154 31.978 57.168 33 55.222 33 50.242 33 47 29.15 47 22.79c0-6.363 4.092-10.21 8.346-10.21M79.943 21.038c0-2.193-.97-3.73-3.357-3.73-1.86 0-3.477 1.191-3.883 3.73h7.24zM76.465 13C82.169 13 85 16.96 85 22.153c0 1-.123 1.924-.242 2.386H72.744c.525 2.884 2.547 4.153 5.217 4.153 1.497 0 2.873-.423 4.33-1.27l1.98 3.424C82.21 32.191 79.54 33 77.155 33 71.41 33 67 29.307 67 23c0-6.193 4.651-10 9.465-10z" fill="#6B7377"/><path d="M86.226 6.98c0-1.764 1.434-2.98 3.387-2.98S93 5.216 93 6.98c0 1.766-1.434 3.021-3.387 3.021s-3.387-1.255-3.387-3.02zm.437 5.883h5.86v19.334c0 4.235-1.674 7.803-7.054 7.803-1.635 0-2.67-.234-3.469-.548l1.038-4.236c.517.157.995.276 1.553.276 1.553 0 2.072-.982 2.072-3.138V12.863zM103.4 28.615c1.276 0 2.103-.615 3.08-1.616v-3.346c-3.944.538-5.222 1.692-5.222 3.154 0 1.23.826 1.808 2.142 1.808m3.08-8.345c-.113-1.694-.94-2.771-2.931-2.771-1.578 0-3.155.653-4.957 1.73l-1.954-3.73C99.005 14.037 101.671 13 104.6 13c4.77 0 7.4 2.769 7.4 8.615v10.923h-4.508l-.412-1.961h-.114C105.39 32 103.624 33 101.521 33 98.142 33 96 30.461 96 27.23c0-3.999 3.117-6.193 10.48-6.96M113 13h5.636l2.436 9.436c.495 1.975.99 4.071 1.485 6.17h.153a203.97 203.97 0 0 1 1.446-6.17L126.631 13H132l-6.168 20h-6.473L113 13zM135 13h5.959v11.378c0 2.795.77 3.701 2.514 3.701 1.5 0 2.391-.631 3.567-2.166V13H153v19.527h-4.866l-.445-2.716h-.123C145.864 31.78 144 33 141.244 33c-4.38 0-6.244-2.992-6.244-7.874V13z" fill="#6B7377"/><path d="M0 5.455S1.58 1.28 12.673.182c10.665-1.055 17.24 2.813 17.389 2.919.15.106 2.862 1.37 2.936 3.796.073 2.427-1.709 3.552-4.014 4.922C26.68 13.192 20.587 14 20.587 14s-1.226-4.9-7.246-7.244C5.96 3.884 0 5.456 0 5.456" fill="#C5DFFF"/><path d="M0 7.089s7.242-.552 11.962 1.096c4.518 1.58 6.607 4.649 7.038 6.6 0 0-6.849 1.128-12.804-1.79C.416 10.162 0 7.09 0 7.09" fill="#0087FF"/><path d="M0 10v5.563s2.975 8.186 18.902 7.381c0 0 .388-3.3-.38-6.03 0 0-14.337 1.351-18.522-6.914" fill="#0087FF"/><path d="M0 18v5.989s3.697 6.431 15.063 5.99c0 0 2.818-1.425 3.937-5.353 0 0-14.725 1.082-19-6.626" fill="#0087FF"/><path d="M0 26v5.784s4.268 2.88 13-.225c0 0-10.358-.502-13-5.559" fill="#0087FF"/><path d="M21 16.497s.508 3.421.205 5.503c0 0 10.101-.296 11.795-6.494V10s-.728 5.158-12 6.497" fill="#C5DFFF"/><path d="M21.413 23.946s-1.29 4.242-3.413 6.045c0 0 12.137.53 15-6.363V17s-.458 5.261-11.587 6.946" fill="#C5DFFF"/><path d="M0 33.268s6.95 3.322 15.41-2.024c0 0 15.928 1.309 17.59-6.244v7.156s-3.612 6.433-16.52 5.8C3.573 37.323 0 33.268 0 33.268" fill="#C5DFFF"/></g></svg>
